src/lib/packages/icons/src/assets/line/toggle-on.svg

<svg xmlns="http://www.w3.org/2000/svg" width="24" height="24" fill="none"><path fill="currentColor" d="M17 7.25a4.737 4.737 0 0 0-3.858 2H5a2.69 2.69 0 0 0-1.934.802A2.698 2.698 0 0 0 2.25 12 2.752 2.752 0 0 0 5 14.75h8.142a4.737 4.737 0 0 0 3.858 2A4.756 4.756 0 0 0 21.75 12 4.756 4.756 0 0 0 17 7.25Zm-12 6c-.689 0-1.25-.561-1.25-1.25 0-.335.129-.645.377-.887.229-.234.538-.363.873-.363h7.438A4.7 4.7 0 0 0 12.25 12c0 .436.078.849.188 1.25H5Zm12 2A3.254 3.254 0 0 1 13.75 12 3.254 3.254 0 0 1 17 8.75 3.254 3.254 0 0 1 20.25 12 3.254 3.254 0 0 1 17 15.25Z"/></svg>

<svg width="24" height="24" viewBox="0 0 24 24" fill="none" xmlns="http://www.w3.org/2000/svg">
<path d="M17 7.25C15.408 7.25 14.0041 8.044 13.1421 9.25H5C4.258 9.25 3.56592 9.54 3.06592 10.052C2.53992 10.565 2.25 11.257 2.25 12C2.25 13.517 3.483 14.75 5 14.75H13.1421C14.0041 15.956 15.408 16.75 17 16.75C19.619 16.75 21.75 14.619 21.75 12C21.75 9.381 19.619 7.25 17 7.25ZM5 13.25C4.311 13.25 3.75 12.689 3.75 12C3.75 11.665 3.87895 11.355 4.12695 11.113C4.35595 10.879 4.665 10.75 5 10.75H12.438C12.328 11.151 12.25 11.565 12.25 12C12.25 12.436 12.328 12.849 12.438 13.25H5ZM17 15.25C15.208 15.25 13.75 13.792 13.75 12C13.75 10.208 15.208 8.75 17 8.75C18.792 8.75 20.25 10.208 20.25 12C20.25 13.792 18.792 15.25 17 15.25Z" fill="currentColor"/>
</svg>
